src/assets/icons/weeks,simple,21.svg

<svg width="48" height="48" viewBox="0 0 48 48" fill="none" xmlns="http://www.w3.org/2000/svg">
<rect opacity="0.2" x="5" y="5" width="38" height="38" rx="4" fill="black"/>
<path d="M5 13C5 9.22876 5 7.34315 6.17157 6.17157C7.34315 5 9.22876 5 13 5H35C38.7712 5 40.6569 5 41.8284 6.17157C43 7.34315 43 9.22876 43 13V15H5V13Z" fill="black"/>
<path d="M11.9851 38H24.4283V34.983H17.0987V34.8636L19.647 32.3665C23.2351 29.0938 24.1982 27.4574 24.1982 25.4716C24.1982 22.446 21.7266 20.3068 17.9851 20.3068C14.3203 20.3068 11.8061 22.4972 11.8146 25.9233H15.3175C15.3089 24.2528 16.3658 23.2301 17.9595 23.2301C19.4936 23.2301 20.6357 24.1847 20.6357 25.7188C20.6357 27.108 19.7834 28.0625 18.1982 29.5881L11.9851 35.3409V38ZM34.696 20.5455H31.2273L26.9062 23.2812V26.554L30.9034 24.0483H31.0057V38H34.696V20.5455Z" fill="black"/>
</svg>

<svg xmlns="http://www.w3.org/2000/svg" width="48" height="48" fill="none" viewBox="0 0 48 48">
  <rect width="38" height="38" x="5" y="5" fill="#000" opacity=".2" rx="4"/>
  <path fill="#000" d="M5 13c0-3.771 0-5.657 1.172-6.828C7.343 5 9.229 5 13 5h22c3.771 0 5.657 0 6.828 1.172C43 7.343 43 9.229 43 13v2H5v-2zM11.985 38h12.443v-3.017h-7.33v-.12l2.549-2.496c3.588-3.273 4.551-4.91 4.551-6.895 0-3.026-2.471-5.165-6.213-5.165-3.665 0-6.179 2.19-6.17 5.616h3.503c-.01-1.67 1.048-2.693 2.641-2.693 1.535 0 2.677.955 2.677 2.489 0 1.389-.853 2.343-2.438 3.87l-6.213 5.752V38zm22.711-17.454h-3.469l-4.32 2.735v3.273l3.996-2.506h.103V38h3.69V20.546z"/>
</svg>
